assets/images/icon-file-description.svg

<svg width="24" height="25" viewBox="0 0 24 25" fill="none" xmlns="http://www.w3.org/2000/svg">
<path d="M14 3.50049V7.50049C14 7.7657 14.1054 8.02006 14.2929 8.20759C14.4804 8.39513 14.7348 8.50049 15 8.50049H19M14 3.50049H7C6.46957 3.50049 5.96086 3.7112 5.58579 4.08627C5.21071 4.46135 5 4.97006 5 5.50049V19.5005C5 20.0309 5.21071 20.5396 5.58579 20.9147C5.96086 21.2898 6.46957 21.5005 7 21.5005H17C17.5304 21.5005 18.0391 21.2898 18.4142 20.9147C18.7893 20.5396 19 20.0309 19 19.5005V8.50049M14 3.50049L19 8.50049M9 17.5005H15M9 13.5005H15" stroke="#FA9531" stroke-width="2" stroke-linecap="round" stroke-linejoin="round"/>
</svg>

<svg xmlns="http://www.w3.org/2000/svg" width="24" height="25" fill="none" xmlns:v="https://vecta.io/nano"><path d="M14 3.5v4a1 1 0 0 0 1 1h4m-5-5H7a2 2 0 0 0-2 2v14a2 2 0 0 0 2 2h10a2 2 0 0 0 2-2v-11m-5-5l5 5m-10 9h6m-6-4h6" stroke="#fa9531" stroke-width="2" stroke-linecap="round" stroke-linejoin="round"/></svg>
